X:1
T:James Gibb editions
T:Perfice gressus meos - Witt
T:#
%%score [ 1 2 ] { ( 3 4 ) | ( 5 6 7 ) }
L:1/8
Q:1/4=86
M:4/4
K:D
V:1 treble nm="Soprano" snm="S"
V:2 treble-8 nm="Tenor" snm="T"
V:3 treble nm="Organ"
V:4 treble 
V:5 bass 
V:6 bass 
V:7 bass 
V:1
"^Franz Xaver Witt\n(1834-1888)""^Perfice gressus meos" z8 | z8 |!mf! B3 F F4 | %3
w: ||Per- fi- ce|
!<(! G2 A2!<)!!>(! B4!>)! | F4 z2 B2 |!<(! B3 A!<)! (GABc) |!>(! d4 B4!>)! | z8 | z8 |!f! d3 A A4 | %10
w: gres- sus me-|os in|se- mi- tis * * *|tu- is,|||Per- fi- ce|
 B2 c2 d4 | A4 z2 A2 | A2 GG (F3 ^G) |[Q:1/4=84] A4 z4 | z2 A2 A2 dc | B2 A2 G4 | F3 F E4 | %17
w: gres- sus me-|os in|se- mi- tis tu\- *|is:|ut non mo- ve-|an- tur ve-|sti- gi- a|
 (D2 CB, C4) | B,2 F2 F2 BA | G2 F2 z4 | z2"^cresc." ^A2 (B2 d2- | d)d c4 (B2- | BAGF E2 F2 | %23
w: me\- * * *|a, ut non mo- ve-|an- tur|ve- sti\- *|* gi- a me\-||
"^dim." E4) F4 | z8 | z8 | z2 D2 F2 D2 | !>!E2 E2 G4 | F4 ^A3 A | B2 =A2 G2 F2 | G4 F2 D2 | %31
w: * a:|||In- cli- na|au- rem tu-|am, et ex-|au- di ver- ba|me- a, in-|
 F2 D2 !>!A3 G | F4 E4 | z8 | z4 G3 G | G2 F2 E2 D2- | D2 C2 D2 d2 | c2 B2 A2 B2 | A3 G F2 z2 | %39
w: cli- na au- rem|tu- am,||et ex-|au- di ver- ba|* me- a: Mi-|ri- fi- ca, mi-|ri- fi- ca|
 z2 A2 A2 A2 | d3 d A4 | (G2 F2) E4 | A4 c2 B2 | (A2 G2) F2 A2 | d2 c2 (B3 A) | G2 B2 (e2 d2) | %46
w: mi- se- ri-|cor- di- as|tu\- * as:|qui sal- vos|fa\- * cis, qui|sal- vos fa\- *|cis spe- ran\- *|
 c2 B2 ^A4 | B6 B2 | ^A2 F2 B2 =A2 | (G2 F2) E2 E2 | A2 G2 (F2 E2) | %51
w: tes in te,|Do- mi-|ne, qui sal- vos|fa\- * cis, qui|sal- vos fa\- *|
[Q:1/4=84][Q:1/4=84][Q:1/4=84] D2 D2 d4 | B4 G4 |"^rit." F2[Q:1/4=78] F2 (d3 c | B3 A G2) (G2- | %55
w: cis spe- ran-|tes in|te, in te *|* * * Do\-|
 GFED C2) C2 | B,8- | B,8 |] %58
w: * * * * * mi-|ne.||
V:2
!mf! B3 F F4 |!<(! G2 A2!<)! B4 |!>(! F4!>)! z2 B2 |!<(! B3 A!<)! (GABc) |!>(! d4 B4!>)! | z8 | %6
w: Per- fi- ce|gres- sus me-|os in|se- mi- tis * * *|tu- is,||
 z8 |!f! d3 A A4 | B2 c2 d4 | A4 z2 d2 | B2 AA (GABc) | d4 z2 A2 | B2 Bc d4 | c2 A2 A2 dc | %14
w: |Per- fi- ce|gres- sus me-|os in|se- mi- tis tu\- * * *|is, in|se- mi- tis tu-|is: ut non mo- ve-|
 B2 A2 z4 | z2 d4 (c2- | c2 B4) ^A2 | B2 (B4 ^A2) | B4 z4 | z2 F2 F2 BA | G2 F2 z2 B2 | e3 e d4 | %22
w: an- tur|ve- sti\-|* * gi-|a me\- *|a,|ut non mo- ve-|an- tur ve-|sti- gi- a|
 (d4 c2 d2- | d2 c2) d4 | z2 G2 B2 G2 | A2 A2 G4 | F4 z4 | z8 | F2 F2 c3 c | d2 c2 (B2 d2- | %30
w: me\- * *|* * a:|In- cli- na|au- rem tu-|am,||et ex- au- di|ver- ba me\- *|
 d2 c2) d4 | z8 | z4 z2 E2 | G2 E2 !>!B3 A | (G2 =c2) B2 BB | B2 A2 G2 F2 | E4 D4 | z4 z2 d2 | %38
w: * * a,||in-|cli- na au- rem|tu\- * am, et ex-|au- di ver- ba|me- a:|Mi-|
 c2 B2 A2 B2 | A3 G FAAA | d3 d A4 | (G2 F2) E2 A2 | c2 B2 (A2 G2) | F2 A2 d2 c2 | (B2 A2) G2 B2 | %45
w: ri- fi- ca, mi-|ri- fi- ca mi- se- ri-|cor- di- as|tu\- * as: qui|sal- vos fa\- *|cis, qui sal- vos|fa\- * cis spe-|
 (e2 d2) c2 B2 | ^A2 B2 c4 | d6 d2 | c4 z2 F2 | B2 A2 (G2 F2) | E2 E2 A2 G2 | (F2 E2) D2 D2 | %52
w: ran\- * tes in|te, in te,|Do- mi-|ne, qui|sal- vos fa\- *|cis, qui sal- vos|fa\- * cis spe-|
 d4 B2 B2 | ^A4 z2 F2 | (d3 c B4) | B6 ^A2 | B8- | B8 |] %58
w: ran- tes in|te, in|te * *|Do- mi-|ne.||
V:3
!p! F8 | G2 A2 B2 G2 | B4 F4 | G2 A2 B2 G2 | F4 G4 | B2 A2 G4 | F4 B2 AG | F2 G2 A2 F2 | %8
 B2 c2 d2 B2 | A2 G2 A2 F2 | [FB]2 [Ac]2 [Bd]4 | A8 | A2 G2 F3 ^G | A4 A4 | [DG]2 [DF]2 [EA]2 dc | %15
 B2 A2 G4 | F4 E4 | (D2 CB, C4) | D6 BA | [EG]2 [DF]2- [DF]4 | G2 F2 F2 B2- | [DEB]2 [CEA]2 [DF]4 | %22
 G4 E2 F2 | E4 F4 |!p! G8 | A4 G4 | F8 | E4 G4 | F4 [F^A]4 | %29
 [DFB]2 [C!courtesy!=A]2 [B,DG]2 [DF]2 | G4 F4- | F4 A3 G | F4 G4- | G4 B3 A | %34
 [EG]2- [EG=c]2 [DGB]2- [DG]2 | [DG]2 F2 E2 D2- | D2 C2 D2!f! [Fd]2 | [Gc]2 [GB]2 [FA]2 [GB]2 | %38
 A3 G F2 D2 | E4 D2 [EA]2 | [Fd]4 A4 | G2 F2 E4 |!p! E8 | F8 | D8 | [EG]8 | F8 | [DF]8 | %48
 [CF]4- [DF]4 | [B,G]2 [A,F]2 [G,E]2 [F,D]2 | C4 D2 E2 | x8 | B4 G4 |"^rit." F4 F4 | x4 E4- | %55
 E4 C4 | x4 x4 | x4 x4 |] %58
V:4
 D8 | E8 | F2 E2 F2 D2 | E8 | x4 D4- | D4 E4 | D4 D4 | D8- | D8 | D8 | D2 E2 G4 | x4 x4 | E3 C D4 | %13
 E4 F4 | x4 x2 F2 | G2 A2 G4 | x4 x4 | x4 x4 | x4 x2 F2 | x4 x4 | C2 C2 D4 | x4 x4 | B,4 C2 D2 | %23
 D2 C2 D4 | D8 | D6 C2 | D8 | x4 D2 ED | C4 C4 | x4 x4 | D2 C2 D4- | D4 E4 | E2 ^D2 E4- | E4 F4 | %34
 x4 x4 | x4 x4 | x4 x4 | x4 x4 | E2 DE D2 x2 | x4 x4 | D4 E2 F2 | D4 C4 | C8 | D8 | x4 x4 | x8 | %46
 x8 | x8 | x8 | B,8 | x8 | D8- | D6 E2- | E2 C2 D4 | x4 x4 | x4 x4 | x4 x4 | x4 x4 |] %58
V:5
"^Ped." B,8- | B,8 | B,8 | B,8 | D4 B,4 | G,2 A,2 B,4- | B,4 G,2 F,E, | A,8 | x8 | x8 | %10
 B,,2 A,,2 B,4 | (D6 A,2) | B,3 G, A,2 B,2 | C4 D3 C | B,2 A,2 A,2 D2 | D2 D4 C2 | C2 B,4 ^A,2 | %17
 B,6 ^A,2 | B,8- | B,8 | B,2 ^A,2 B,4 | B,2 C2- C2 B,2 | E,2 G,2 A,4 | A,4 A,4 | B,8 | %25
 A,4 B,2 A,G, | A,8- | A,4 z4 | ^A,,4"^Man." F,,4 | B,,2 F,2 G,2 A,2 | [E,G,]4 [D,A,]4- | %31
"^Ped." A,6 B,2 | =C2 B,2 B,4- | B,6 ^D2 | x6 B,2 | B,2 A,2 [G,!courtesy!^C]2 [F,A,]2 | %36
 [E,A,]4 [F,A,]2 A,2 | G,2 D2 D2 D2 | C2 B,2 A,2 B,2 | A,4 F,2 A,2 | B,2 A,6 | B,4 C4 | A,8 | A,8 | %44
 [G,B,]8 | B,8 | [^A,C]2 [B,D]2 [A,C]4 | B,8 | [F,^A,]4 [B,,B,]4 | x8 | [E,A,]8 | A,4 [F,B,]4 | %52
 G,4 B,4 | ^A,4 B,4 | z4"^Man." [G,B,]4- | [G,B,]6 ^A,2 |"^Ped." [F,B,]4 B,3 C | [F,B,^D]8 |] %58
V:6
 B,,2 C,2 D,2 B,,2 | E,2 F,2 G,2 E,2 | D,2 C,2 D,2 B,,2 | E,2 F,2 G,2 E,2 | B,2 A,2 G,2 F,2 | %5
 G,2 F,2 E,2 G,2 | B,2 D,2 x4 | D,2 E,2 F,2 D,2 | G,2 A,2 B,2 G,2 | F,2 E,2 F,2 D,2 | %10
 x4 G,,2 !>!G,2- | G,2 F,E,"^dim." F,2 F,2 | E,4 D,2 B,,2 | A,,4 D,2 F,2 | G,2 D,2 C,2 B,,A,, | %15
 G,,2 F,,2 E,,2 E,2 | D,4 C,4 | B,,2 G,2 E,2 F,2 | B,,4 z2 D,2 | E,2 B,,2 C,2 D,2 | %20
 E,2 F,2 z2 B,,2 | G,,2 !courtesy!=A,,2 B,,2 D,2 | x4 A,2 D,2 | A,,4 D,4 | G,8 | F,4 E,4 | D,8 | %27
 C,4 B,,2 !courtesy!^C,B,, | x4 x4 | x4 x2 D,2 | x4 x4 | D,2 D,2 C,2 B,,2 | A,,2 B,,2 E,4 | %33
 E,2 E,2 ^D,2 B,,2 | E,3 F, G,4 | D,4 E,2 F,D, | A,,4 D,2 D,2 | E,2 G,2 D,2 G,,2 | A,,2 B,,C, D,4 | %39
 D,2 C,2 D,2 C,2 | B,,2 D,2 C,2 D,2 | G,,4 A,,4 | A,,8 | D,8 | G,,8 | E,,8 | F,,8 | %47
 B,,3 C, D,C,B,,D, | x4 x4 | E,,6 F,,G,, | A,,4 B,,2 C,2 | D,2 C,2 B,,2 A,,2 | G,,2 B,,2 E,2 D,2 | %53
 C,2 F,,2 B,,4 | z4 E,,4- | E,,4 F,,4 | B,,4 E,,4 | B,,8 |] %58
V:7
 x8 | x8 | x8 | x8 | x8 | x8 | x8 | x8 | x8 | x8 | x8 | x8 | x8 | x8 | x8 | x8 | x8 | x8 | x8 | %19
 x8 | x8 | x8 | x8 | x8 | x8 | x8 | x8 | x8 | x8 | x8 | x8 | x8 | x8 | x8 | x8 | x8 | x8 | x8 | %38
 x8 | x8 | x8 | x8 | x8 | x8 | x8 | x4 x4 | x4 x4 | x4 x4 | x4 x4 | x8 | x4 x4 | F,2 E,2 x4 | %52
 x4 x4 | x4 x4 | x4 x4 | x4 F,4 | x4 [E,G,]4 | x4 x4 |] %58

